svgs/sharp-light/bars-progress.svg

<svg xmlns="http://www.w3.org/2000/svg" viewBox="0 0 512 512"><!--! Font Awesome Pro 6.6.0 by @fontawesome - https://fontawesome.com License - https://fontawesome.com/license (Commercial License) Copyright 2024 Fonticons, Inc. --><path d="M480 96l0 96-160 0 0-96 160 0zM32 96l256 0 0 96L32 192l0-96zm0-32L0 64 0 96l0 96 0 32 32 0 448 0 32 0 0-32 0-96 0-32-32 0L32 64zM480 320l0 96-288 0 0-96 288 0zM32 320l128 0 0 96L32 416l0-96zm0-32L0 288l0 32 0 96 0 32 32 0 448 0 32 0 0-32 0-96 0-32-32 0L32 288z"/></svg>

<svg xmlns="http://www.w3.org/2000/svg" viewBox="0 0 512 512"><!--! Font Awesome Pro 6.4.2 by @fontawesome - https://fontawesome.com License - https://fontawesome.com/license (Commercial License) Copyright 2023 Fonticons, Inc. --><path d="M480 96v96H320V96H480zM32 96H288v96H32V96zm0-32H0V96v96 32H32 480h32V192 96 64H480 32zM480 320v96H192V320H480zM32 320H160v96H32V320zm0-32H0v32 96 32H32 480h32V416 320 288H480 32z"/></svg>
